X:1
T:Title
%%score { 1 | 2 }
L:1/8
M:4/4
K:Eb
V:1 treble nm="Grand Piano"
V:2 bass 
V:1
 z4 z2[Q:1/4=100] EG | B2 G2 B2 G[GB] |[M:3/4] [Ac][GB] GB E2 |[M:1/4] [B,E][CEF] | %4
[M:4/4] [B,EG] [EB]3 [DG]2 F2 | E6 z2 |[M:1/4] EG |[M:4/4] B2 G2 B2 G[GB] |[M:3/4] [Ac][GB] GB E2 | %9
[M:1/4] [B,E][CEF] |[M:4/4] [B,EG] [EB]3 [DG]2 F2 | E6 z2 | e4 cB[Ae]c | B2 B2 GB B2 | cccc B2 G2 | %15
 [DF]6 GB | e4 cB[Ae]c | B2 B2 G2 [B,E][CEF] | [B,EG] [EB]3 [DG]2 F2 |[M:3/4] E6 |] %20
V:2
 z4 z2 [E,G,B,][E,B,E] | [E,G,E]2 [E,B,E]2 [E,G,E]2 [E,B,E][E,E] | %2
[M:3/4] [E,E][E,E] [E,B,E][E,G,E] [E,G,B,]2 |[M:1/4] G,,A,, | %4
[M:4/4] B,, [B,,G,]3 [B,,B,]2 [B,,A,B,]2 | [E,G,B,]6 z2 |[M:1/4] [E,G,B,][E,B,E] | %7
[M:4/4] [E,G,E]2 [E,B,E]2 [E,G,E]2 [E,B,E][E,E] |[M:3/4] [E,E][E,E] [E,B,E][E,G,E] [E,G,B,]2 | %9
[M:1/4] G,,A,, |[M:4/4] B,, [B,,G,]3 [B,,B,]2 [B,,A,B,]2 | [E,G,B,]6 z2 | %12
 [E,G,E]4 [E,A,E][E,G,E][E,C][E,A,E] | [E,G,E]2 [E,G,E]2 [E,B,E][E,G,E] [E,G,E]2 | %14
 [A,E][A,E][A,E][A,E] [G,B,E]2 [E,B,E]2 | [B,,B,]6 [E,B,E][E,G,E] | %16
 [E,G,E]4 [E,A,E][E,G,E][E,C][E,A,E] | [E,G,E]2 [E,G,E]2 [E,B,E]2 G,,A,, | %18
 B,, [B,,G,]3 [B,,B,]2 [B,,A,B,]2 |[M:3/4] [E,G,B,]6 |] %20

